symbols/web/fire_hydrant/materialsymbolsrounded/fire_hydrant_gradN25fill1_20px.svg

<svg xmlns="http://www.w3.org/2000/svg" height="20" width="20"><path d="M4.208 18.271q-.312 0-.562-.25-.25-.25-.25-.563 0-.333.25-.583.25-.25.562-.25h.854v-2.479h-.895q-.667 0-1.136-.469-.469-.469-.469-1.135v-1.667q0-.667.469-1.146.469-.479 1.136-.479h.895V6.667h-.854q-.312 0-.562-.25-.25-.25-.25-.584 0-.312.25-.562.25-.25.562-.25h1.125q.521-1.459 1.782-2.386 1.26-.927 2.885-.927 1.646 0 2.896.927t1.771 2.386h1.125q.333 0 .583.25.25.25.25.562 0 .334-.25.584-.25.25-.583.25h-.834V9.25h.875q.667 0 1.146.479.479.479.479 1.146v1.667q0 .666-.479 1.135t-1.146.469h-.875v2.479h.834q.333 0 .583.25.25.25.25.583 0 .313-.25.563-.25.25-.583.25ZM10 14.562q1.188 0 2.031-.833.844-.833.844-2.021 0-1.187-.844-2.031-.843-.844-2.031-.844-1.188 0-2.021.844t-.833 2.031q0 1.188.833 2.021t2.021.833Zm0-1.645q-.5 0-.854-.344t-.354-.865q0-.5.343-.864.344-.365.865-.365.5 0 .865.354.364.355.364.875 0 .5-.354.854-.354.355-.875.355Z"/></svg>

<svg xmlns="http://www.w3.org/2000/svg" height="20" width="20"><path d="M4.208 18.271Q3.896 18.271 3.646 18.021Q3.396 17.771 3.396 17.458Q3.396 17.125 3.646 16.875Q3.896 16.625 4.208 16.625H5.062V14.146H4.167Q3.5 14.146 3.031 13.677Q2.562 13.208 2.562 12.542V10.875Q2.562 10.208 3.031 9.729Q3.5 9.25 4.167 9.25H5.062V6.667H4.208Q3.896 6.667 3.646 6.417Q3.396 6.167 3.396 5.833Q3.396 5.521 3.646 5.271Q3.896 5.021 4.208 5.021H5.333Q5.854 3.562 7.115 2.635Q8.375 1.708 10 1.708Q11.646 1.708 12.896 2.635Q14.146 3.562 14.667 5.021H15.792Q16.125 5.021 16.375 5.271Q16.625 5.521 16.625 5.833Q16.625 6.167 16.375 6.417Q16.125 6.667 15.792 6.667H14.958V9.25H15.833Q16.5 9.25 16.979 9.729Q17.458 10.208 17.458 10.875V12.542Q17.458 13.208 16.979 13.677Q16.5 14.146 15.833 14.146H14.958V16.625H15.792Q16.125 16.625 16.375 16.875Q16.625 17.125 16.625 17.458Q16.625 17.771 16.375 18.021Q16.125 18.271 15.792 18.271ZM10 14.562Q11.188 14.562 12.031 13.729Q12.875 12.896 12.875 11.708Q12.875 10.521 12.031 9.677Q11.188 8.833 10 8.833Q8.812 8.833 7.979 9.677Q7.146 10.521 7.146 11.708Q7.146 12.896 7.979 13.729Q8.812 14.562 10 14.562ZM10 12.917Q9.5 12.917 9.146 12.573Q8.792 12.229 8.792 11.708Q8.792 11.208 9.135 10.844Q9.479 10.479 10 10.479Q10.5 10.479 10.865 10.833Q11.229 11.188 11.229 11.708Q11.229 12.208 10.875 12.562Q10.521 12.917 10 12.917Z"/></svg>
